TGraph/plc.svg

<svg xmlns="http://www.w3.org/2000/svg" viewBox="0 0 1200 800" preserveAspectRatio="none" width="1200" height="800">
 <title>
  ROOT canvas
 </title>
 <rect x="0" y="0" width="1200" height="800" style="fill: white;"></rect>
 <g>
  <g transform="translate(120,80)">
   <title></title>
   <rect x="0" y="0" width="960" height="640" style="fill: white; stroke: black; stroke-width: 1;"></rect>
   <svg x="0" y="0" overflow="hidden" width="960" height="640" viewBox="0 0 960 640">
    <g>
     <path d="M80,586.67c12,-16,133.33,-266.67,200,-266.67s140,286.67,200,266.67s176,-368,200,-400s176.92,-117.95,200,-133.33" style="stroke: rgb(99,0,5); stroke-width: 3; fill: none;"></path>
     <path d="M76,583l8,8m0,-8l-8,8m0,-4h8m-4,-4v8M276,316l8,8m0,-8l-8,8m0,-4h8m-4,-4v8M476,583l8,8m0,-8l-8,8m0,-4h8m-4,-4v8M676,183l8,8m0,-8l-8,8m0,-4h8m-4,-4v8M876,49l8,8m0,-8l-8,8m0,-4h8m-4,-4v8" style="stroke: red; fill: none;"></path>
    </g>
    <g>
     <path d="M80,560c12,-16,133.33,-266.67,200,-266.67s140,286.67,200,266.67s176,-368,200,-400s176.92,-117.95,200,-133.33" style="stroke: rgb(154,8,7); stroke-width: 3; fill: none;"></path>
     <path d="M76,560a4,4,0,1,0,8,0a4,4,0,1,0,-8,0zM276,293a4,4,0,1,0,8,0a4,4,0,1,0,-8,0zM476,560a4,4,0,1,0,8,0a4,4,0,1,0,-8,0zM676,160a4,4,0,1,0,8,0a4,4,0,1,0,-8,0zM876,27a4,4,0,1,0,8,0a4,4,0,1,0,-8,0z" style="stroke: black; fill: none;"></path>
    </g>
    <g>
     <path d="M80,533.33c12,-16,133.33,-266.67,200,-266.67s140,286.67,200,266.67s176,-368,200,-400s176.92,-117.95,200,-133.33" style="stroke: rgb(199,57,9); stroke-width: 3; fill: none;"></path>
     <path d="M76,529v8h8v-8zM276,263v8h8v-8zM476,529v8h8v-8zM676,129v8h8v-8zM876,-4v8h8v-8z" style="stroke: black; fill: none;"></path>
    </g>
    <g>
     <path d="M80,506.67c12,-16,133.33,-266.67,200,-266.67s140,286.67,200,266.67s176,-368,200,-400s176.92,-117.95,200,-133.33" style="stroke: rgb(201,117,17); stroke-width: 3; fill: none;"></path>
     <path d="M76,503l8,8m0,-8l-8,8m0,-4h8m-4,-4v8M276,236l8,8m0,-8l-8,8m0,-4h8m-4,-4v8M476,503l8,8m0,-8l-8,8m0,-4h8m-4,-4v8M676,103l8,8m0,-8l-8,8m0,-4h8m-4,-4v8" style="stroke: blue; fill: none;"></path>
    </g>
    <g>
     <path d="M80,480c12,-16,133.33,-266.67,200,-266.67s140,286.67,200,266.67s176,-368,200,-400s176.92,-117.95,200,-133.33" style="stroke: rgb(227,170,24); stroke-width: 3; fill: none;"></path>
     <path d="M76,476v8h8v-8zM276,209v8h8v-8zM476,476v8h8v-8zM676,76v8h8v-8z" style="stroke: black; fill: black;"></path>
    </g>
   </svg>
   <g>
    <g transform="translate(0,640)">
     <line x1="0" y1="0" x2="960" y2="0" style="stroke: black; stroke-width: 1;"></line>
     <path d="M0,-12v12m20,-12v12m20,-12v12m20,-12v12m20,-24v24m20,-12v12m20,-12v12m20,-12v12m20,-12v12m20,-24v24m20,-12v12m20,-12v12m20,-12v12m20,-12v12m20,-24v24m20,-12v12m20,-12v12m20,-12v12m20,-12v12m20,-24v24m20,-12v12m20,-12v12m20,-12v12m20,-12v12m20,-24v24m20,-12v12m20,-12v12m20,-12v12m20,-12v12m20,-24v24m20,-12v12m20,-12v12m20,-12v12m20,-12v12m20,-24v24m20,-12v12m20,-12v12m20,-12v12m20,-12v12m20,-24v24m20,-12v12m20,-12v12m20,-12v12m20,-12v12m20,-24v24m20,-12v12m20,-12v12m20,-12v12m20,-12v12" style="stroke: black; stroke-width: 1;"></path>
     <g font-family="Arial" font-size="28" space="preserve">
      <text fill="black" text-anchor="middle" dy=".8em" transform="translate(80,6)">
       1
      </text>
      <text fill="black" text-anchor="middle" dy=".8em" transform="translate(180,6)">
       1.5
      </text>
      <text fill="black" text-anchor="middle" dy=".8em" transform="translate(280,6)">
       2
      </text>
      <text fill="black" text-anchor="middle" dy=".8em" transform="translate(380,6)">
       2.5
      </text>
      <text fill="black" text-anchor="middle" dy=".8em" transform="translate(480,6)">
       3
      </text>
      <text fill="black" text-anchor="middle" dy=".8em" transform="translate(580,6)">
       3.5
      </text>
      <text fill="black" text-anchor="middle" dy=".8em" transform="translate(680,6)">
       4
      </text>
      <text fill="black" text-anchor="middle" dy=".8em" transform="translate(780,6)">
       4.5
      </text>
      <text fill="black" text-anchor="middle" dy=".8em" transform="translate(880,6)">
       5
      </text>
     </g>
    </g>
    <g>
     <line x1="0" y1="0" x2="0" y2="640" style="stroke: black; stroke-width: 1;"></line>
     <path d="M18,640h-18m18,-27h-18m36,-26h-36m18,-27h-18m18,-27h-18m18,-26h-18m18,-27h-18m36,-27h-36m18,-26h-18m18,-27h-18m18,-27h-18m18,-26h-18m36,-27h-36m18,-27h-18m18,-26h-18m18,-27h-18m18,-27h-18m36,-26h-36m18,-27h-18m18,-27h-18m18,-26h-18m18,-27h-18m36,-27h-36m18,-26h-18m18,-27h-18" style="stroke: black; stroke-width: 1;"></path>
     <g font-family="Arial" font-size="28" space="preserve">
      <text fill="black" text-anchor="end" dy=".4em" transform="translate(-4,587)">
       1
      </text>
      <text fill="black" text-anchor="end" dy=".4em" transform="translate(-4,453)">
       1.5
      </text>
      <text fill="black" text-anchor="end" dy=".4em" transform="translate(-4,320)">
       2
      </text>
      <text fill="black" text-anchor="end" dy=".4em" transform="translate(-4,187)">
       2.5
      </text>
      <text fill="black" text-anchor="end" dy=".4em" transform="translate(-4,53)">
       3
      </text>
     </g>
    </g>
   </g>
  </g>
  <g transform="translate(120,4)" font-family="Arial" font-size="40" space="preserve">
   <path d="M0,0h960v53h-960z" style="fill: none;"></path>
   <text fill="black" text-anchor="middle" dy=".8em" transform="translate(480,0)">
    Graph with a red star
   </text>
  </g>
  <g transform="translate(600,96)" font-family="Arial" font-size="18" space="preserve">
   <path d="M0,0h456v168h-456z" style="fill: white; stroke: black; stroke-width: 1;"></path>
   <rect x="14" y="8" width="86" height="25" style="fill: rgb(99,0,5);"></rect>
   <line x1="14" y1="21" x2="100" y2="21" style="stroke: rgb(99,0,5); stroke-width: 3;"></line>
   <path d="M53,17l8,8m0,-8l-8,8m0,-4h8m-4,-4v8" style="stroke: red; fill: none;"></path>
   <text fill="black" text-anchor="start" dy=".4em" transform="translate(114,21)">
    Graph with a red star
   </text>
   <rect x="14" y="40" width="86" height="25" style="fill: rgb(154,8,7);"></rect>
   <line x1="14" y1="52" x2="100" y2="52" style="stroke: rgb(154,8,7); stroke-width: 3;"></line>
   <path d="M53,52a4,4,0,1,0,8,0a4,4,0,1,0,-8,0z" style="stroke: black; fill: none;"></path>
   <text fill="black" text-anchor="start" dy=".4em" transform="translate(114,53)">
    Graph with a circular marker
   </text>
   <rect x="14" y="71" width="86" height="25" style="fill: rgb(199,57,9);"></rect>
   <line x1="14" y1="84" x2="100" y2="84" style="stroke: rgb(199,57,9); stroke-width: 3;"></line>
   <path d="M53,80v8h8v-8z" style="stroke: black; fill: none;"></path>
   <text fill="black" text-anchor="start" dy=".4em" transform="translate(114,84)">
    Graph with an open square marker
   </text>
   <rect x="14" y="103" width="86" height="25" style="fill: rgb(201,117,17);"></rect>
   <line x1="14" y1="116" x2="100" y2="116" style="stroke: rgb(201,117,17); stroke-width: 3;"></line>
   <path d="M53,112l8,8m0,-8l-8,8m0,-4h8m-4,-4v8" style="stroke: blue; fill: none;"></path>
   <text fill="black" text-anchor="start" dy=".4em" transform="translate(114,116)">
    Graph with a blue star
   </text>
   <rect x="14" y="134" width="86" height="25" style="fill: rgb(227,170,24);"></rect>
   <line x1="14" y1="147" x2="100" y2="147" style="stroke: rgb(227,170,24); stroke-width: 3;"></line>
   <path d="M53,143v8h8v-8z" style="stroke: black; fill: black;"></path>
   <text fill="black" text-anchor="start" dy=".4em" transform="translate(114,147)">
    Graph with a full square marker
   </text>
  </g>
 </g>
</svg>

<svg xmlns="http://www.w3.org/2000/svg" viewBox="0 0 1200 800" preserveAspectRatio="none" width="1200" height="800">
 <title>
  ROOT canvas
 </title>
 <rect x="0" y="0" width="1200" height="800" style="fill: white;"></rect>
 <g>
  <g transform="translate(120,80)">
   <title></title>
   <rect x="0" y="0" width="960" height="640" style="fill: white; stroke: black; stroke-width: 1;"></rect>
   <svg x="0" y="0" overflow="hidden" width="960" height="640" viewBox="0 0 960 640">
    <g>
     <path d="M80,586.67C92,570.67,213.33,320,280,320S420,606.67,480,586.67S656,218.67,680,186.67S856.92,68.72,880,53.33" style="stroke: rgb(99,0,5); stroke-width: 3; fill: none;"></path>
     <path d="M76,583l8,8m0,-8l-8,8m0,-4h8m-4,-4v8M276,316l8,8m0,-8l-8,8m0,-4h8m-4,-4v8M476,583l8,8m0,-8l-8,8m0,-4h8m-4,-4v8M676,183l8,8m0,-8l-8,8m0,-4h8m-4,-4v8M876,49l8,8m0,-8l-8,8m0,-4h8m-4,-4v8" style="stroke: red; fill: none;"></path>
    </g>
    <g>
     <path d="M80,560C92,544,213.33,293.33,280,293.33S420,580,480,560S656,192,680,160S856.92,42.05,880,26.67" style="stroke: rgb(154,8,7); stroke-width: 3; fill: none;"></path>
     <path d="M76,560a4,4,0,1,0,8,0a4,4,0,1,0,-8,0zM276,293a4,4,0,1,0,8,0a4,4,0,1,0,-8,0zM476,560a4,4,0,1,0,8,0a4,4,0,1,0,-8,0zM676,160a4,4,0,1,0,8,0a4,4,0,1,0,-8,0zM876,27a4,4,0,1,0,8,0a4,4,0,1,0,-8,0z" style="stroke: black; fill: none;"></path>
    </g>
    <g>
     <path d="M80,533.33C92,517.33,213.33,266.67,280,266.67S420,553.33,480,533.33S656,165.33,680,133.33S856.92,15.38,880,0" style="stroke: rgb(199,57,9); stroke-width: 3; fill: none;"></path>
     <path d="M76,529v8h8v-8zM276,263v8h8v-8zM476,529v8h8v-8zM676,129v8h8v-8zM876,-4v8h8v-8z" style="stroke: black; fill: none;"></path>
    </g>
    <g>
     <path d="M80,506.67C92,490.67,213.33,240,280,240S420,526.67,480,506.67S656,138.67,680,106.67S856.92,-11.28,880,-26.67" style="stroke: rgb(201,117,17); stroke-width: 3; fill: none;"></path>
     <path d="M76,503l8,8m0,-8l-8,8m0,-4h8m-4,-4v8M276,236l8,8m0,-8l-8,8m0,-4h8m-4,-4v8M476,503l8,8m0,-8l-8,8m0,-4h8m-4,-4v8M676,103l8,8m0,-8l-8,8m0,-4h8m-4,-4v8" style="stroke: blue; fill: none;"></path>
    </g>
    <g>
     <path d="M80,480C92,464,213.33,213.33,280,213.33S420,500,480,480S656,112,680,80S856.92,-37.95,880,-53.33" style="stroke: rgb(227,170,24); stroke-width: 3; fill: none;"></path>
     <path d="M76,476v8h8v-8zM276,209v8h8v-8zM476,476v8h8v-8zM676,76v8h8v-8z" style="stroke: black; fill: black;"></path>
    </g>
   </svg>
   <g>
    <g transform="translate(0,640)">
     <line x1="0" y1="0" x2="960" y2="0" style="stroke: black; stroke-width: 1;"></line>
     <path d="M0,-12v12m20,-12v12m20,-12v12m20,-12v12m20,-24v24m20,-12v12m20,-12v12m20,-12v12m20,-12v12m20,-24v24m20,-12v12m20,-12v12m20,-12v12m20,-12v12m20,-24v24m20,-12v12m20,-12v12m20,-12v12m20,-12v12m20,-24v24m20,-12v12m20,-12v12m20,-12v12m20,-12v12m20,-24v24m20,-12v12m20,-12v12m20,-12v12m20,-12v12m20,-24v24m20,-12v12m20,-12v12m20,-12v12m20,-12v12m20,-24v24m20,-12v12m20,-12v12m20,-12v12m20,-12v12m20,-24v24m20,-12v12m20,-12v12m20,-12v12m20,-12v12m20,-24v24m20,-12v12m20,-12v12m20,-12v12m20,-12v12" style="stroke: black; stroke-width: 1;"></path>
     <g font-family="Arial" font-size="28" space="preserve">
      <text fill="black" text-anchor="middle" dy=".8em" transform="translate(80,6)">
       1
      </text>
      <text fill="black" text-anchor="middle" dy=".8em" transform="translate(180,6)">
       1.5
      </text>
      <text fill="black" text-anchor="middle" dy=".8em" transform="translate(280,6)">
       2
      </text>
      <text fill="black" text-anchor="middle" dy=".8em" transform="translate(380,6)">
       2.5
      </text>
      <text fill="black" text-anchor="middle" dy=".8em" transform="translate(480,6)">
       3
      </text>
      <text fill="black" text-anchor="middle" dy=".8em" transform="translate(580,6)">
       3.5
      </text>
      <text fill="black" text-anchor="middle" dy=".8em" transform="translate(680,6)">
       4
      </text>
      <text fill="black" text-anchor="middle" dy=".8em" transform="translate(780,6)">
       4.5
      </text>
      <text fill="black" text-anchor="middle" dy=".8em" transform="translate(880,6)">
       5
      </text>
     </g>
    </g>
    <g>
     <line x1="0" y1="0" x2="0" y2="640" style="stroke: black; stroke-width: 1;"></line>
     <path d="M18,640h-18m18,-27h-18m36,-26h-36m18,-27h-18m18,-27h-18m18,-26h-18m18,-27h-18m36,-27h-36m18,-26h-18m18,-27h-18m18,-27h-18m18,-26h-18m36,-27h-36m18,-27h-18m18,-26h-18m18,-27h-18m18,-27h-18m36,-26h-36m18,-27h-18m18,-27h-18m18,-26h-18m18,-27h-18m36,-27h-36m18,-26h-18m18,-27h-18" style="stroke: black; stroke-width: 1;"></path>
     <g font-family="Arial" font-size="28" space="preserve">
      <text fill="black" text-anchor="end" dy=".4em" transform="translate(-4,587)">
       1
      </text>
      <text fill="black" text-anchor="end" dy=".4em" transform="translate(-4,453)">
       1.5
      </text>
      <text fill="black" text-anchor="end" dy=".4em" transform="translate(-4,320)">
       2
      </text>
      <text fill="black" text-anchor="end" dy=".4em" transform="translate(-4,187)">
       2.5
      </text>
      <text fill="black" text-anchor="end" dy=".4em" transform="translate(-4,53)">
       3
      </text>
     </g>
    </g>
   </g>
  </g>
  <g transform="translate(120,4)" font-family="Arial" font-size="40" space="preserve">
   <path d="M0,0h960v53h-960z" style="fill: none;"></path>
   <text fill="black" text-anchor="middle" dy=".8em" transform="translate(480,0)">
    Graph with a red star
   </text>
  </g>
  <g transform="translate(600,96)" font-family="Arial" font-size="18" space="preserve">
   <path d="M0,0h456v168h-456z" style="fill: white; stroke: black; stroke-width: 1;"></path>
   <rect x="14" y="8" width="86" height="25" style="fill: rgb(99,0,5);"></rect>
   <line x1="14" y1="21" x2="100" y2="21" style="stroke: rgb(99,0,5); stroke-width: 3;"></line>
   <path d="M53,17l8,8m0,-8l-8,8m0,-4h8m-4,-4v8" style="stroke: red; fill: none;"></path>
   <text fill="black" text-anchor="start" dy=".4em" transform="translate(114,21)">
    Graph with a red star
   </text>
   <rect x="14" y="40" width="86" height="25" style="fill: rgb(154,8,7);"></rect>
   <line x1="14" y1="52" x2="100" y2="52" style="stroke: rgb(154,8,7); stroke-width: 3;"></line>
   <path d="M53,52a4,4,0,1,0,8,0a4,4,0,1,0,-8,0z" style="stroke: black; fill: none;"></path>
   <text fill="black" text-anchor="start" dy=".4em" transform="translate(114,53)">
    Graph with a circular marker
   </text>
   <rect x="14" y="71" width="86" height="25" style="fill: rgb(199,57,9);"></rect>
   <line x1="14" y1="84" x2="100" y2="84" style="stroke: rgb(199,57,9); stroke-width: 3;"></line>
   <path d="M53,80v8h8v-8z" style="stroke: black; fill: none;"></path>
   <text fill="black" text-anchor="start" dy=".4em" transform="translate(114,84)">
    Graph with an open square marker
   </text>
   <rect x="14" y="103" width="86" height="25" style="fill: rgb(201,117,17);"></rect>
   <line x1="14" y1="116" x2="100" y2="116" style="stroke: rgb(201,117,17); stroke-width: 3;"></line>
   <path d="M53,112l8,8m0,-8l-8,8m0,-4h8m-4,-4v8" style="stroke: blue; fill: none;"></path>
   <text fill="black" text-anchor="start" dy=".4em" transform="translate(114,116)">
    Graph with a blue star
   </text>
   <rect x="14" y="134" width="86" height="25" style="fill: rgb(227,170,24);"></rect>
   <line x1="14" y1="147" x2="100" y2="147" style="stroke: rgb(227,170,24); stroke-width: 3;"></line>
   <path d="M53,143v8h8v-8z" style="stroke: black; fill: black;"></path>
   <text fill="black" text-anchor="start" dy=".4em" transform="translate(114,147)">
    Graph with a full square marker
   </text>
  </g>
 </g>
</svg>
